X:1
T:God's Gift It Is to Eat and Drink
T:Tune: Bartholomäus Gesius, 1605 Text and harmonization under copyright; for copyrighted material see Psalter Hymnal 190
T:87 87 88 MACHS MIT MIR www.hymnary.org/text/gods_gift_it_is_to_eat_and_drink
T:God's Gift It Is to Eat and Drink
T:This tune is in the public domain. You may freely use this score for personal and congregational worship. If you reproduce the score, please credit Hymnary.org as the source. 
T:This tune is in the public domain. You may freely use this score for personal and congregational worship. If you reproduce the score, please credit Hymnary.org as the source. 
Z:This tune is in the public domain. You may freely use this score for personal and congregational worship. If you reproduce the score, please credit Hymnary.org as the source.
L:1/8
M:6/4
K:D
V:1 treble nm="SOPRANO ALTO" snm="S. A."
V:1
 D2 | F4 F2 A4 A2 | G2 F2 E6 A2 | B2 c2 d2 c2 | B4 A6 D2 | F4 F2 A4 A2 | G2 F2 E6 A2 | %7
 B2 c2 d2 c2 | B4 A6 ||"^Refrain" A2 | d4 c2 B4 A2 |1 G2 F2 E6 A2 | G4 F2 E4 G2 | F4 E4 | D8 x4 |] %15

